/* XPM */
static char *out[] = {
/* columns rows colors chars-per-pixel */
"65 65 18 1 ",
"  c None",
". c #372823",
"X c #433530",
"o c #4F423E",
"O c #5C504C",
"+ c #685D59",
"@ c #756B67",
"# c #827875",
"$ c #8E8683",
"% c #9B9391",
"& c #A7A19E",
"* c #B4AEAC",
"= c #C0BCBA",
"- c #CDC9C8",
"; c #D9D7D6",
": c #E6E4E3",
"> c #F2F2F1",
", c white",
/* pixels */
"                                                                 ",
"                                                                 ",
"                                                                 ",
"                                                                 ",
"                                                                 ",
"                                  ,,,,,,,,,                      ",
"                              ,,,,,,,,,,,,,,,,,,                 ",
"                           ,,,,,,,>--%%%-->,,,,,,,               ",
"                         ,,,,,-%+X.........X+%=>,,,              ",
"                        ,,,:@X..................+>,,             ",
"                       ,,,-X.........o+o.........+,,             ",
"                      ,,,&.....X@%->:->,,>-&#O....,,,            ",
"                    ,,,>@....#;,,,,*..X;,,,,,,=...,,             ",
"                   ,,,;O....&,,,,,,X...@,,,,,,%..o,,             ",
"                  ,,,=X...X-,,,,,,,----;,,,,,,+..@,,             ",
"                 ,,,%....O:,,,,,,,,,,,,,,,,,,,o..%,,             ",
"               ,,,>@.....o>,,,,,,,,,,,,,,,,,,>...-,,             ",
"              ,,,;O.......O-,,,,,,,,,,,,,,,,,-...:,,             ",
"             ,,,*X...X-O....O%--;,,,,,,,,,,,,&...,,              ",
"            ,,,$....O>,,%X.....+:,,,,,,,,,,,:O..+,,              ",
"          ,,,>+....#,,,,,,-%%=:,,,,,,,,,,,,=X...#,,              ",
"         ,,,;o...X*,,,,,,,,,,,,,,,,,,,,,,>$.....%,,              ",
"        ,,,*X...o;,,,,,,,,,,,,,,,,,,,,,,;O......-,,              ",
"       ,,,#....+>,,,,,,,,,,,,,,,,,,,,,,*........:,,              ",
"      ,,>O....$,,,,,,,,,,,,,,,,,,,,,,,:....O$...,,               ",
"     ,,>O...X*,,,,,,,,,,,,,,,,,,,,,,,,%...$,>o.+,,               ",
"    ,,>O...O;,,,,,,,,,,,,,,,,,,,,,,,,,%..X,,,*.#,,,,,,           ",
"   ,,,+...O>,,,,,,,,,,,,,,,,,,,,,,,,,,-...*,,,,,,,,,,,,,,        ",
"   ,,&...O>,,,,,,,,,,,,,,,,,,,---------X..+----------:,,,,,      ",
"  ,,>X..o>,,,,,,,,,,,,,,:--=@.........................X#:,,,     ",
"  ,,#...-,,,,,,,,,,,,*@X.................................%,,,    ",
" ,,>...#,,,,,,,,,,,*o.....................................O>,,   ",
" ,,&...:,,,,,,,,,;O.........X%;,,,,,,,,,,,,,,,,,,,,,,-#....+,,,  ",
" ,,+..@,,,,,,,,,*XX#*-,+...@>,,,,,,,,,,,,,,,,,,,,,,,,,,;O...%,,  ",
" ,,...*,,,,,,,,=#;,,,,*...#,,,,,,,,,,,;;,,$...*,,=,,,,,,>o..X>,, ",
",,;...;,,,,,,,,,,,,,,,+..o>,,,,,,,,,>%.:,,o...>,,.#,,,,,,-...&,, ",
",,-...,,,,,,,,,,,,,,,>...&,,,,,,,,,-o.o,,;...@,,=..#,,,,,,+..+,, ",
",,%..X,,,,,,,,,,,,,,,-...:,,,,,,,>#...$,,%...*,,#...#,,,,,*...,, ",
",,%..+,,,,,,,,,,,,,,,*...,,,,,,,*X....;,,O...:,,;X...#,,,,-...,,,",
",,%..X,,,,,,,,,,,,,,,%...,,,,,:+....X*,,:...O,,,,;X...#,,,-...,,,",
",,-...,,,,,,,,,,,,,,,%...,,,,%X....#>,,,&...&,,,,,;X...&,,-...,,,",
",,-...;,,,,,,,,,,,,,,%...,,-O....o-,,,,,+...;,,,,,,$....*,-...,,,",
" ,,...&,,,,,,,,,,,,,,%...,,*....#>,,,,,>...o,,,,,;+....X=,-...,,,",
" ,,+..@,,,,,,,,,,,,,,%...,,,*...X;,,,,,*...$,,,,%.....$>,,-...,,,",
" ,,&...:,,,,,,,,,,,,,%...,,,,*...X;,,,,@...;,,-o....O-,,,,-...,,,",
" ,,:...#,,,,,,,,,,,,,%...,,,,,*...X;,,,X..X,,:.....%,,,,,,-...,,,",
"  ,,#...:,,,,,,,,,,,,%...,,,,,,%...+,,=...#,,*...+:,,,,,,,-...,,,",
"  ,,:...+,,,,,,,,,,,,=...,,,,,,,#..&,,#...=,,@.X*,,,,,,,,,-...,,,",
"   ,,$...$,,,,,,,,,,,-...;,,,,,,,#.:,,X...,,>.#>,,,,,,,,,,&..X,, ",
"   ,,>o...*,,,,,,,,,,,...%,,,,,,,,*,,;...@,,:-,,,,,,,,,,,,o..@,, ",
"    ,,;X...$,,,,,,,,,,@..X:,,,,,,,,,,*+++=,,,,,,,,,,,,,,,&...*,, ",
"     ,,*....+;,,,,,,,,-...O>,,,,,,,,,,,,,,,,,,,,,,,,,,,,;X..o,,, ",
"     ,,,=X....#;,,,,,,,$...O;,,,,,,,,,,,,,,,,,,,,,,,,,,&X...=,,  ",
"      ,,,;O.....o$*----=X....@*----------------------&o....$,,,  ",
"       ,,,,%X.............................................$,,,   ",
"         ,,,:$X.........................................o=,,,    ",
"          ,,,,,=$+...................................X@*,,,,     ",
"            ,,,,,,,,,,,,,,,,,,,,,,,,,,,,,,,,,,,,,,,,,,,,,,,      ",
"               ,,,,,,,,,,,,,,,,,,,,,,,,,,,,,,,,,,,,,,,,,,        ",
"                   ,,,,,,,,,,,,,,,,,,,,,,,,,,,,,,,,,,            ",
"                                                                 ",
"                                                                 ",
"                                                                 ",
"                                                                 ",
"                                                                 "
};
